packages/tokens/icons/envelopeDual/size24Px.svg

<svg viewBox="0 0 24 24" fill="none" xmlns="http://www.w3.org/2000/svg" width="1em" height="1em"><path d="M3.00016 9.71754L8.193 15.129C8.95779 15.926 10.2109 15.9389 10.992 15.1579L16.2953 9.8546" stroke="currentColor"/><path d="M2.5 11C2.5 10.1716 3.17157 9.5 4 9.5H15C15.8284 9.5 16.5 10.1716 16.5 11V18C16.5 18.8284 15.8284 19.5 15 19.5H4C3.17157 19.5 2.5 18.8284 2.5 18L2.5 11Z" stroke="currentColor"/><path d="M7.5 6V6C7.5 5.17157 8.17157 4.5 9 4.5L19.5 4.5C20.6046 4.5 21.5 5.39543 21.5 6.5V12.5C21.5 13.6046 20.6046 14.5 19.5 14.5H19" stroke="currentColor" stroke-linecap="round"/></svg>

<svg xmlns="http://www.w3.org/2000/svg" fill="none" viewBox="0 0 24 24" width="1em" height="1em"><path stroke="currentColor" d="m3 9.718 5.193 5.411a1.95 1.95 0 0 0 2.799.029l5.303-5.303"/><path stroke="currentColor" d="M2.5 11A1.5 1.5 0 0 1 4 9.5h11a1.5 1.5 0 0 1 1.5 1.5v7a1.5 1.5 0 0 1-1.5 1.5H4A1.5 1.5 0 0 1 2.5 18v-7Z"/><path stroke="currentColor" stroke-linecap="round" d="M7.5 6v0A1.5 1.5 0 0 1 9 4.5h10.5a2 2 0 0 1 2 2v6a2 2 0 0 1-2 2H19"/></svg>
